X: 15361
T: Glandyfi
R: jig
M: 6/8
K: Gmajor
|:D|"G" G2 G G2 B|"Em" d2 c B2 G|"Am" A2 A AGA|"G" B2 G "D" E2 D|
"Em" G2 G G2 B|d2 c B2 G|"Am" c2 B "D" AGA|"G" G3 G2:|
|:d|"C" e2 d e2 d|e2 f g2 d|"Am" e2 d BAG|"G" B2 G "C" E2 D|
"G" G2 G G2 B|"Em" d2 c B2 G|"Am" c2 B "D" AGA|"G" G3 G2:|

